X:654
T:Reel 654
M:4/4
K:Dmaj
L:1/8
DB, (3B,B,B, FEFD|ECA,B, C2CE|DB,B,C B,A,B,C|DCB,A, B,2C2|D>B, (3B,B,B, GEDD|EDB,D EGFE|DB,B,B, B,2|ECDB, C2|GEFD EDB,D|EDB,D EGFE|EA, (3B,CD EF (3B,CD |EDEF E2FG|AGFE DEFD|EDB,D EGFG|AFGE FDEC|DB,A,B, D2FG|AGFE D2FD|EDB,D E2FG|AGEF D2FD|EDFD E2FG|AGEF E2FD|EDB,D E2FG|AFGE FDEC|DB,B,D A,2FG|A>F (3FED AFGF|EGFD E2EG|EGEF E2DE|EDB
